X: 1
T: Poor But Happy At 53
R: reel
M: 4/4
L: 1/8
K: Emin
|:"Em"EFGA BE E2|BcAc BE E2|"D"DEFG AD D2|ABGB AFGF|
  "Em"EFGA Be ^df|edBG "D"ABGA|"G"BGDB "D"AFDF|GAFG "Em"E2ED:|
|:"Em"edBA Bdef|g2 eg fd Bd|e2ef g2ga|"D"gfed "Em"e2 ef|
  "Em"gefd edBA|BGGF GFED|"G"BGDB "D"AFDF|GAFG "Em"E4:|

%%newpage
%% header "Randy+Will+Noel - Silver Spear / Saint-Antoine		$P"

